src/icon.svg

<svg fill="none" xmlns="http://www.w3.org/2000/svg" viewBox="0 0 400 400">
<path d="M200 0C1.543 0 0 89.545 0 200s1.543 200 200 200 200-89.545 200-200S398.457 0 200 0z" fill="#E1567C"/>
<path d="M222.067 111.402a20.578 20.578 0 00-17.619-9.953 20.571 20.571 0 00-17.618 9.953l-28.982 49.64a141.874 141.874 0 0178.181 117.426H215.68a121.921 121.921 0 00-68.095-100.072l-26.824 46.38a70.115 70.115 0 0140.654 53.604h-46.732a3.345 3.345 0 01-2.731-4.889l12.949-22.023a47.29 47.29 0 00-14.799-8.368l-12.817 22.022a19.999 19.999 0 007.443 27.485 20.529 20.529 0 009.955 2.643h63.998a85.445 85.445 0 00-35.236-76.244l10.174-17.618a105.145 105.145 0 0145.368 93.862h54.22a158.031 158.031 0 00-72.279-140.066l20.569-35.237a3.395 3.395 0 014.625-1.189c2.334 1.277 89.369 153.148 90.999 154.909a3.348 3.348 0 01-2.995 4.978H273.16c.264 5.608.264 11.202 0 16.781h21.054a20.222 20.222 0 0018.823-12.511 20.21 20.21 0 001.526-7.794 19.772 19.772 0 00-2.731-10.043l-89.765-153.676z" fill="#fff"/>
</svg>

<svg width="400" height="400" viewBox="0 0 400 400" fill="none" xmlns="http://www.w3.org/2000/svg">
<path d="M200 0C1.54348 0 0 89.5447 0 200C0 310.455 1.54348 400 200 400C398.457 400 400 310.455 400 200C400 89.5447 398.457 0 200 0Z" fill="#E1567C"/>
<path d="M222.067 111.402C220.237 108.366 217.653 105.853 214.566 104.109C211.479 102.365 207.994 101.449 204.448 101.449C200.903 101.449 197.417 102.365 194.33 104.109C191.243 105.853 188.66 108.366 186.83 111.402L157.848 161.042C179.989 172.096 198.853 188.75 212.568 209.349C226.283 229.948 234.371 253.777 236.029 278.468H215.68C214.025 257.303 206.872 236.937 194.929 219.385C182.985 201.833 166.666 187.704 147.585 178.396L120.761 224.776C131.488 229.587 140.833 237.018 147.937 246.384C155.041 255.751 159.676 266.754 161.415 278.38H114.683C114.129 278.341 113.593 278.165 113.124 277.867C112.655 277.569 112.267 277.159 111.996 276.674C111.726 276.188 111.58 275.644 111.572 275.088C111.564 274.532 111.695 273.984 111.952 273.491L124.901 251.468C120.514 247.808 115.5 244.972 110.102 243.1L97.2846 265.122C95.9503 267.411 95.084 269.942 94.7362 272.569C94.3884 275.195 94.5659 277.864 95.2585 280.422C95.951 282.979 97.1448 285.373 98.7705 287.465C100.396 289.557 102.421 291.305 104.728 292.607C107.768 294.32 111.194 295.229 114.683 295.25H178.681C179.87 280.583 177.251 265.857 171.077 252.5C164.904 239.142 155.386 227.605 143.445 219.006L153.619 201.388C168.689 211.739 180.8 225.84 188.756 242.3C196.712 258.76 200.238 277.011 198.987 295.25H253.207C254.47 267.62 248.459 240.142 235.775 215.563C223.091 190.984 204.179 170.164 180.928 155.184L201.497 119.947C201.956 119.179 202.699 118.624 203.565 118.401C204.431 118.178 205.35 118.306 206.122 118.758C208.456 120.035 295.491 271.906 297.121 273.667C297.408 274.182 297.554 274.764 297.544 275.353C297.534 275.942 297.369 276.519 297.065 277.024C296.761 277.529 296.33 277.945 295.813 278.229C295.297 278.514 294.715 278.657 294.126 278.645H273.16C273.424 284.253 273.424 289.847 273.16 295.426H294.214C296.887 295.444 299.538 294.931 302.011 293.917C304.485 292.903 306.734 291.409 308.626 289.521C310.519 287.632 312.018 285.387 313.037 282.915C314.056 280.444 314.575 277.794 314.563 275.121C314.566 271.59 313.623 268.122 311.832 265.078L222.067 111.402Z" fill="white"/>
</svg>
